X: 163
T: The Dunmore Lasses
R: reel
M: 4/4
L: 1/8
K: Emin
~E3F ~G3A|Be~e2 Be~e2|~E3F G2BG|~A2BA GEFD|
~E3F ~G3A|Beed e2ef|ge fd edBG|1AcBA GEFD:|2AcBA GEE2||
gfeg fedc|Be~e2 Be~e2|gfeg fedB|AcBA GEE2|
gfeg fedc|Beed e2ef|ge fd eBdB|1AcBA GEE2:|2AcBA GEFD||

